luts/warm.cube
TITLE "Warm Glow"
DOMAIN_MIN 0.0 0.0 0.0
DOMAIN_MAX 1.0 1.0 1.0
LUT_3D_SIZE 16
0.120000 0.000000 0.080000
0.176667 0.002000 0.080000
0.233333 0.004000 0.080000
0.290000 0.006000 0.080000
0.346667 0.008000 0.080000
0.403333 0.010000 0.080000
0.460000 0.012000 0.080000
0.516667 0.014000 0.080000
0.573333 0.016000 0.080000
0.630000 0.018000 0.080000
0.686667 0.020000 0.080000
0.743333 0.022000 0.080000
0.800000 0.024000 0.080000
0.856667 0.026000 0.080000
0.913333 0.028000 0.080000
0.970000 0.030000 0.080000
0.125333 0.063333 0.080000
0.182000 0.065333 0.080000
0.238667 0.067333 0.080000
0.295333 0.069333 0.080000
0.352000 0.071333 0.080000
0.408667 0.073333 0.080000
0.465333 0.075333 0.080000
0.522000 0.077333 0.080000
0.578667 0.079333 0.080000
0.635333 0.081333 0.080000
0.692000 0.083333 0.080000
0.748667 0.085333 0.080000
0.805333 0.087333 0.080000
0.862000 0.089333 0.080000
0.918667 0.091333 0.080000
0.975333 0.093333 0.080000
0.130667 0.126667 0.080000
0.187333 0.128667 0.080000
0.244000 0.130667 0.080000
0.300667 0.132667 0.080000
0.357333 0.134667 0.080000
0.414000 0.136667 0.080000
0.470667 0.138667 0.080000
0.527333 0.140667 0.080000
0.584000 0.142667 0.080000
0.640667 0.144667 0.080000
0.697333 0.146667 0.080000
0.754000 0.148667 0.080000
0.810667 0.150667 0.080000
0.867333 0.152667 0.080000
0.924000 0.154667 0.080000
0.980667 0.156667 0.080000
0.136000 0.190000 0.080000
0.192667 0.192000 0.080000
0.249333 0.194000 0.080000
0.306000 0.196000 0.080000
0.362667 0.198000 0.080000
0.419333 0.200000 0.080000
0.476000 0.202000 0.080000
0.532667 0.204000 0.080000
0.589333 0.206000 0.080000
0.646000 0.208000 0.080000
0.702667 0.210000 0.080000
0.759333 0.212000 0.080000
0.816000 0.214000 0.080000
0.872667 0.216000 0.080000
0.929333 0.218000 0.080000
0.986000 0.220000 0.080000
0.141333 0.253333 0.080000
0.198000 0.255333 0.080000
0.254667 0.257333 0.080000
0.311333 0.259333 0.080000
0.368000 0.261333 0.080000
0.424667 0.263333 0.080000
0.481333 0.265333 0.080000
0.538000 0.267333 0.080000
0.594667 0.269333 0.080000
0.651333 0.271333 0.080000
0.708000 0.273333 0.080000
0.764667 0.275333 0.080000
0.821333 0.277333 0.080000
0.878000 0.279333 0.080000
0.934667 0.281333 0.080000
0.991333 0.283333 0.080000
0.146667 0.316667 0.080000
0.203333 0.318667 0.080000
0.260000 0.320667 0.080000
0.316667 0.322667 0.080000
0.373333 0.324667 0.080000
0.430000 0.326667 0.080000
0.486667 0.328667 0.080000
0.543333 0.330667 0.080000
0.600000 0.332667 0.080000
0.656667 0.334667 0.080000
0.713333 0.336667 0.080000
0.770000 0.338667 0.080000
0.826667 0.340667 0.080000
0.883333 0.342667 0.080000
0.940000 0.344667 0.080000
0.996667 0.346667 0.080000
0.152000 0.380000 0.080000
0.208667 0.382000 0.080000
0.265333 0.384000 0.080000
0.322000 0.386000 0.080000
0.378667 0.388000 0.080000
0.435333 0.390000 0.080000
0.492000 0.392000 0.080000
0.548667 0.394000 0.080000
0.605333 0.396000 0.080000
0.662000 0.398000 0.080000
0.718667 0.400000 0.080000
0.775333 0.402000 0.080000
0.832000 0.404000 0.080000
0.888667 0.406000 0.080000
0.945333 0.408000 0.080000
1.000000 0.410000 0.080000
0.157333 0.443333 0.080000
0.214000 0.445333 0.080000
0.270667 0.447333 0.080000
0.327333 0.449333 0.080000
0.384000 0.451333 0.080000
0.440667 0.453333 0.080000
0.497333 0.455333 0.080000
0.554000 0.457333 0.080000
0.610667 0.459333 0.080000
0.667333 0.461333 0.080000
0.724000 0.463333 0.080000
0.780667 0.465333 0.080000
0.837333 0.467333 0.080000
0.894000 0.469333 0.080000
0.950667 0.471333 0.080000
1.000000 0.473333 0.080000
0.162667 0.506667 0.080000
0.219333 0.508667 0.080000
0.276000 0.510667 0.080000
0.332667 0.512667 0.080000
0.389333 0.514667 0.080000
0.446000 0.516667 0.080000
0.502667 0.518667 0.080000
0.559333 0.520667 0.080000
0.616000 0.522667 0.080000
0.672667 0.524667 0.080000
0.729333 0.526667 0.080000
0.786000 0.528667 0.080000
0.842667 0.530667 0.080000
0.899333 0.532667 0.080000
0.956000 0.534667 0.080000
1.000000 0.536667 0.080000
0.168000 0.570000 0.080000
0.224667 0.572000 0.080000
0.281333 0.574000 0.080000
0.338000 0.576000 0.080000
0.394667 0.578000 0.080000
0.451333 0.580000 0.080000
0.508000 0.582000 0.080000
0.564667 0.584000 0.080000
0.621333 0.586000 0.080000
0.678000 0.588000 0.080000
0.734667 0.590000 0.080000
0.791333 0.592000 0.080000
0.848000 0.594000 0.080000
0.904667 0.596000 0.080000
0.961333 0.598000 0.080000
1.000000 0.600000 0.080000
0.173333 0.633333 0.080000
0.230000 0.635333 0.080000
0.286667 0.637333 0.080000
0.343333 0.639333 0.080000
0.400000 0.641333 0.080000
0.456667 0.643333 0.080000
0.513333 0.645333 0.080000
0.570000 0.647333 0.080000
0.626667 0.649333 0.080000
0.683333 0.651333 0.080000
0.740000 0.653333 0.080000
0.796667 0.655333 0.080000
0.853333 0.657333 0.080000
0.910000 0.659333 0.080000
0.966667 0.661333 0.080000
1.000000 0.663333 0.080000
0.178667 0.696667 0.080000
0.235333 0.698667 0.080000
0.292000 0.700667 0.080000
0.348667 0.702667 0.080000
0.405333 0.704667 0.080000
0.462000 0.706667 0.080000
0.518667 0.708667 0.080000
0.575333 0.710667 0.080000
0.632000 0.712667 0.080000
0.688667 0.714667 0.080000
0.745333 0.716667 0.080000
0.802000 0.718667 0.080000
0.858667 0.720667 0.080000
0.915333 0.722667 0.080000
0.972000 0.724667 0.080000
1.000000 0.726667 0.080000
0.184000 0.760000 0.080000
0.240667 0.762000 0.080000
0.297333 0.764000 0.080000
0.354000 0.766000 0.080000
0.410667 0.768000 0.080000
0.467333 0.770000 0.080000
0.524000 0.772000 0.080000
0.580667 0.774000 0.080000
0.637333 0.776000 0.080000
0.694000 0.778000 0.080000
0.750667 0.780000 0.080000
0.807333 0.782000 0.080000
0.864000 0.784000 0.080000
0.920667 0.786000 0.080000
0.977333 0.788000 0.080000
1.000000 0.790000 0.080000
0.189333 0.823333 0.080000
0.246000 0.825333 0.080000
0.302667 0.827333 0.080000
0.359333 0.829333 0.080000
0.416000 0.831333 0.080000
0.472667 0.833333 0.080000
0.529333 0.835333 0.080000
0.586000 0.837333 0.080000
0.642667 0.839333 0.080000
0.699333 0.841333 0.080000
0.756000 0.843333 0.080000
0.812667 0.845333 0.080000
0.869333 0.847333 0.080000
0.926000 0.849333 0.080000
0.982667 0.851333 0.080000
1.000000 0.853333 0.080000
0.194667 0.886667 0.080000
0.251333 0.888667 0.080000
0.308000 0.890667 0.080000
0.364667 0.892667 0.080000
0.421333 0.894667 0.080000
0.478000 0.896667 0.080000
0.534667 0.898667 0.080000
0.591333 0.900667 0.080000
0.648000 0.902667 0.080000
0.704667 0.904667 0.080000
0.761333 0.906667 0.080000
0.818000 0.908667 0.080000
0.874667 0.910667 0.080000
0.931333 0.912667 0.080000
0.988000 0.914667 0.080000
1.000000 0.916667 0.080000
0.200000 0.950000 0.080000
0.256667 0.952000 0.080000
0.313333 0.954000 0.080000
0.370000 0.956000 0.080000
0.426667 0.958000 0.080000
0.483333 0.960000 0.080000
0.540000 0.962000 0.080000
0.596667 0.964000 0.080000
0.653333 0.966000 0.080000
0.710000 0.968000 0.080000
0.766667 0.970000 0.080000
0.823333 0.972000 0.080000
0.880000 0.974000 0.080000
0.936667 0.976000 0.080000
0.993333 0.978000 0.080000
1.000000 0.980000 0.080000
0.120000 0.000000 0.130000
0.176667 0.002000 0.130000
0.233333 0.004000 0.130000
0.290000 0.006000 0.130000
0.346667 0.008000 0.130000
0.403333 0.010000 0.130000
0.460000 0.012000 0.130000
0.516667 0.014000 0.130000
0.573333 0.016000 0.130000
0.630000 0.018000 0.130000
0.686667 0.020000 0.130000
0.743333 0.022000 0.130000
0.800000 0.024000 0.130000
0.856667 0.026000 0.130000
0.913333 0.028000 0.130000
0.970000 0.030000 0.130000
0.125333 0.063333 0.130000
0.182000 0.065333 0.130000
0.238667 0.067333 0.130000
0.295333 0.069333 0.130000
0.352000 0.071333 0.130000
0.408667 0.073333 0.130000
0.465333 0.075333 0.130000
0.522000 0.077333 0.130000
0.578667 0.079333 0.130000
0.635333 0.081333 0.130000
0.692000 0.083333 0.130000
0.748667 0.085333 0.130000
0.805333 0.087333 0.130000
0.862000 0.089333 0.130000
0.918667 0.091333 0.130000
0.975333 0.093333 0.130000
0.130667 0.126667 0.130000
0.187333 0.128667 0.130000
0.244000 0.130667 0.130000
0.300667 0.132667 0.130000
0.357333 0.134667 0.130000
0.414000 0.136667 0.130000
0.470667 0.138667 0.130000
0.527333 0.140667 0.130000
0.584000 0.142667 0.130000
0.640667 0.144667 0.130000
0.697333 0.146667 0.130000
0.754000 0.148667 0.130000
0.810667 0.150667 0.130000
0.867333 0.152667 0.130000
0.924000 0.154667 0.130000
0.980667 0.156667 0.130000
0.136000 0.190000 0.130000
0.192667 0.192000 0.130000
0.249333 0.194000 0.130000
0.306000 0.196000 0.130000
0.362667 0.198000 0.130000
0.419333 0.200000 0.130000
0.476000 0.202000 0.130000
0.532667 0.204000 0.130000
0.589333 0.206000 0.130000
0.646000 0.208000 0.130000
0.702667 0.210000 0.130000
0.759333 0.212000 0.130000
0.816000 0.214000 0.130000
0.872667 0.216000 0.130000
0.929333 0.218000 0.130000
0.986000 0.220000 0.130000
0.141333 0.253333 0.130000
0.198000 0.255333 0.130000
0.254667 0.257333 0.130000
0.311333 0.259333 0.130000
0.368000 0.261333 0.130000
0.424667 0.263333 0.130000
0.481333 0.265333 0.130000
0.538000 0.267333 0.130000
0.594667 0.269333 0.130000
0.651333 0.271333 0.130000
0.708000 0.273333 0.130000
0.764667 0.275333 0.130000
0.821333 0.277333 0.130000
0.878000 0.279333 0.130000
0.934667 0.281333 0.130000
0.991333 0.283333 0.130000
0.146667 0.316667 0.130000
0.203333 0.318667 0.130000
0.260000 0.320667 0.130000
0.316667 0.322667 0.130000
0.373333 0.324667 0.130000
0.430000 0.326667 0.130000
0.486667 0.328667 0.130000
0.543333 0.330667 0.130000
0.600000 0.332667 0.130000
0.656667 0.334667 0.130000
0.713333 0.336667 0.130000
0.770000 0.338667 0.130000
0.826667 0.340667 0.130000
0.883333 0.342667 0.130000
0.940000 0.344667 0.130000
0.996667 0.346667 0.130000
0.152000 0.380000 0.130000
0.208667 0.382000 0.130000
0.265333 0.384000 0.130000
0.322000 0.386000 0.130000
0.378667 0.388000 0.130000
0.435333 0.390000 0.130000
0.492000 0.392000 0.130000
0.548667 0.394000 0.130000
0.605333 0.396000 0.130000
0.662000 0.398000 0.130000
0.718667 0.400000 0.130000
0.775333 0.402000 0.130000
0.832000 0.404000 0.130000
0.888667 0.406000 0.130000
0.945333 0.408000 0.130000
1.000000 0.410000 0.130000
0.157333 0.443333 0.130000
0.214000 0.445333 0.130000
0.270667 0.447333 0.130000
0.327333 0.449333 0.130000
0.384000 0.451333 0.130000
0.440667 0.453333 0.130000
0.497333 0.455333 0.130000
0.554000 0.457333 0.130000
0.610667 0.459333 0.130000
0.667333 0.461333 0.130000
0.724000 0.463333 0.130000
0.780667 0.465333 0.130000
0.837333 0.467333 0.130000
0.894000 0.469333 0.130000
0.950667 0.471333 0.130000
1.000000 0.473333 0.130000
0.162667 0.506667 0.130000
0.219333 0.508667 0.130000
0.276000 0.510667 0.130000
0.332667 0.512667 0.130000
0.389333 0.514667 0.130000
0.446000 0.516667 0.130000
0.502667 0.518667 0.130000
0.559333 0.520667 0.130000
0.616000 0.522667 0.130000
0.672667 0.524667 0.130000
0.729333 0.526667 0.130000
0.786000 0.528667 0.130000
0.842667 0.530667 0.130000
0.899333 0.532667 0.130000
0.956000 0.534667 0.130000
1.000000 0.536667 0.130000
0.168000 0.570000 0.130000
0.224667 0.572000 0.130000
0.281333 0.574000 0.130000
0.338000 0.576000 0.130000
0.394667 0.578000 0.130000
0.451333 0.580000 0.130000
0.508000 0.582000 0.130000
0.564667 0.584000 0.130000
0.621333 0.586000 0.130000
0.678000 0.588000 0.130000
0.734667 0.590000 0.130000
0.791333 0.592000 0.130000
0.848000 0.594000 0.130000
0.904667 0.596000 0.130000
0.961333 0.598000 0.130000
1.000000 0.600000 0.130000
0.173333 0.633333 0.130000
0.230000 0.635333 0.130000
0.286667 0.637333 0.130000
0.343333 0.639333 0.130000
0.400000 0.641333 0.130000
0.456667 0.643333 0.130000
0.513333 0.645333 0.130000
0.570000 0.647333 0.130000
0.626667 0.649333 0.130000
0.683333 0.651333 0.130000
0.740000 0.653333 0.130000
0.796667 0.655333 0.130000
0.853333 0.657333 0.130000
0.910000 0.659333 0.130000
0.966667 0.661333 0.130000
1.000000 0.663333 0.130000
0.178667 0.696667 0.130000
0.235333 0.698667 0.130000
0.292000 0.700667 0.130000
0.348667 0.702667 0.130000
0.405333 0.704667 0.130000
0.462000 0.706667 0.130000
0.518667 0.708667 0.130000
0.575333 0.710667 0.130000
0.632000 0.712667 0.130000
0.688667 0.714667 0.130000
0.745333 0.716667 0.130000
0.802000 0.718667 0.130000
0.858667 0.720667 0.130000
0.915333 0.722667 0.130000
0.972000 0.724667 0.130000
1.000000 0.726667 0.130000
0.184000 0.760000 0.130000
0.240667 0.762000 0.130000
0.297333 0.764000 0.130000
0.354000 0.766000 0.130000
0.410667 0.768000 0.130000
0.467333 0.770000 0.130000
0.524000 0.772000 0.130000
0.580667 0.774000 0.130000
0.637333 0.776000 0.130000
0.694000 0.778000 0.130000
0.750667 0.780000 0.130000
0.807333 0.782000 0.130000
0.864000 0.784000 0.130000
0.920667 0.786000 0.130000
0.977333 0.788000 0.130000
1.000000 0.790000 0.130000
0.189333 0.823333 0.130000
0.246000 0.825333 0.130000
0.302667 0.827333 0.130000
0.359333 0.829333 0.130000
0.416000 0.831333 0.130000
0.472667 0.833333 0.130000
0.529333 0.835333 0.130000
0.586000 0.837333 0.130000
0.642667 0.839333 0.130000
0.699333 0.841333 0.130000
0.756000 0.843333 0.130000
0.812667 0.845333 0.130000
0.869333 0.847333 0.130000
0.926000 0.849333 0.130000
0.982667 0.851333 0.130000
1.000000 0.853333 0.130000
0.194667 0.886667 0.130000
0.251333 0.888667 0.130000
0.308000 0.890667 0.130000
0.364667 0.892667 0.130000
0.421333 0.894667 0.130000
0.478000 0.896667 0.130000
0.534667 0.898667 0.130000
0.591333 0.900667 0.130000
0.648000 0.902667 0.130000
0.704667 0.904667 0.130000
0.761333 0.906667 0.130000
0.818000 0.908667 0.130000
0.874667 0.910667 0.130000
0.931333 0.912667 0.130000
0.988000 0.914667 0.130000
1.000000 0.916667 0.130000
0.200000 0.950000 0.130000
0.256667 0.952000 0.130000
0.313333 0.954000 0.130000
0.370000 0.956000 0.130000
0.426667 0.958000 0.130000
0.483333 0.960000 0.130000
0.540000 0.962000 0.130000
0.596667 0.964000 0.130000
0.653333 0.966000 0.130000
0.710000 0.968000 0.130000
0.766667 0.970000 0.130000
0.823333 0.972000 0.130000
0.880000 0.974000 0.130000
0.936667 0.976000 0.130000
0.993333 0.978000 0.130000
1.000000 0.980000 0.130000
0.120000 0.000000 0.180000
0.176667 0.002000 0.180000
0.233333 0.004000 0.180000
0.290000 0.006000 0.180000
0.346667 0.008000 0.180000
0.403333 0.010000 0.180000
0.460000 0.012000 0.180000
0.516667 0.014000 0.180000
0.573333 0.016000 0.180000
0.630000 0.018000 0.180000
0.686667 0.020000 0.180000
0.743333 0.022000 0.180000
0.800000 0.024000 0.180000
0.856667 0.026000 0.180000
0.913333 0.028000 0.180000
0.970000 0.030000 0.180000
0.125333 0.063333 0.180000
0.182000 0.065333 0.180000
0.238667 0.067333 0.180000
0.295333 0.069333 0.180000
0.352000 0.071333 0.180000
0.408667 0.073333 0.180000
0.465333 0.075333 0.180000
0.522000 0.077333 0.180000
0.578667 0.079333 0.180000
0.635333 0.081333 0.180000
0.692000 0.083333 0.180000
0.748667 0.085333 0.180000
0.805333 0.087333 0.180000
0.862000 0.089333 0.180000
0.918667 0.091333 0.180000
0.975333 0.093333 0.180000
0.130667 0.126667 0.180000
0.187333 0.128667 0.180000
0.244000 0.130667 0.180000
0.300667 0.132667 0.180000
0.357333 0.134667 0.180000
0.414000 0.136667 0.180000
0.470667 0.138667 0.180000
0.527333 0.140667 0.180000
0.584000 0.142667 0.180000
0.640667 0.144667 0.180000
0.697333 0.146667 0.180000
0.754000 0.148667 0.180000
0.810667 0.150667 0.180000
0.867333 0.152667 0.180000
0.924000 0.154667 0.180000
0.980667 0.156667 0.180000
0.136000 0.190000 0.180000
0.192667 0.192000 0.180000
0.249333 0.194000 0.180000
0.306000 0.196000 0.180000
0.362667 0.198000 0.180000
0.419333 0.200000 0.180000
0.476000 0.202000 0.180000
0.532667 0.204000 0.180000
0.589333 0.206000 0.180000
0.646000 0.208000 0.180000
0.702667 0.210000 0.180000
0.759333 0.212000 0.180000
0.816000 0.214000 0.180000
0.872667 0.216000 0.180000
0.929333 0.218000 0.180000
0.986000 0.220000 0.180000
0.141333 0.253333 0.180000
0.198000 0.255333 0.180000
0.254667 0.257333 0.180000
0.311333 0.259333 0.180000
0.368000 0.261333 0.180000
0.424667 0.263333 0.180000
0.481333 0.265333 0.180000
0.538000 0.267333 0.180000
0.594667 0.269333 0.180000
0.651333 0.271333 0.180000
0.708000 0.273333 0.180000
0.764667 0.275333 0.180000
0.821333 0.277333 0.180000
0.878000 0.279333 0.180000
0.934667 0.281333 0.180000
0.991333 0.283333 0.180000
0.146667 0.316667 0.180000
0.203333 0.318667 0.180000
0.260000 0.320667 0.180000
0.316667 0.322667 0.180000
0.373333 0.324667 0.180000
0.430000 0.326667 0.180000
0.486667 0.328667 0.180000
0.543333 0.330667 0.180000
0.600000 0.332667 0.180000
0.656667 0.334667 0.180000
0.713333 0.336667 0.180000
0.770000 0.338667 0.180000
0.826667 0.340667 0.180000
0.883333 0.342667 0.180000
0.940000 0.344667 0.180000
0.996667 0.346667 0.180000
0.152000 0.380000 0.180000
0.208667 0.382000 0.180000
0.265333 0.384000 0.180000
0.322000 0.386000 0.180000
0.378667 0.388000 0.180000
0.435333 0.390000 0.180000
0.492000 0.392000 0.180000
0.548667 0.394000 0.180000
0.605333 0.396000 0.180000
0.662000 0.398000 0.180000
0.718667 0.400000 0.180000
0.775333 0.402000 0.180000
0.832000 0.404000 0.180000
0.888667 0.406000 0.180000
0.945333 0.408000 0.180000
1.000000 0.410000 0.180000
0.157333 0.443333 0.180000
0.214000 0.445333 0.180000
0.270667 0.447333 0.180000
0.327333 0.449333 0.180000
0.384000 0.451333 0.180000
0.440667 0.453333 0.180000
0.497333 0.455333 0.180000
0.554000 0.457333 0.180000
0.610667 0.459333 0.180000
0.667333 0.461333 0.180000
0.724000 0.463333 0.180000
0.780667 0.465333 0.180000
0.837333 0.467333 0.180000
0.894000 0.469333 0.180000
0.950667 0.471333 0.180000
1.000000 0.473333 0.180000
0.162667 0.506667 0.180000
0.219333 0.508667 0.180000
0.276000 0.510667 0.180000
0.332667 0.512667 0.180000
0.389333 0.514667 0.180000
0.446000 0.516667 0.180000
0.502667 0.518667 0.180000
0.559333 0.520667 0.180000
0.616000 0.522667 0.180000
0.672667 0.524667 0.180000
0.729333 0.526667 0.180000
0.786000 0.528667 0.180000
0.842667 0.530667 0.180000
0.899333 0.532667 0.180000
0.956000 0.534667 0.180000
1.000000 0.536667 0.180000
0.168000 0.570000 0.180000
0.224667 0.572000 0.180000
0.281333 0.574000 0.180000
0.338000 0.576000 0.180000
0.394667 0.578000 0.180000
0.451333 0.580000 0.180000
0.508000 0.582000 0.180000
0.564667 0.584000 0.180000
0.621333 0.586000 0.180000
0.678000 0.588000 0.180000
0.734667 0.590000 0.180000
0.791333 0.592000 0.180000
0.848000 0.594000 0.180000
0.904667 0.596000 0.180000
0.961333 0.598000 0.180000
1.000000 0.600000 0.180000
0.173333 0.633333 0.180000
0.230000 0.635333 0.180000
0.286667 0.637333 0.180000
0.343333 0.639333 0.180000
0.400000 0.641333 0.180000
0.456667 0.643333 0.180000
0.513333 0.645333 0.180000
0.570000 0.647333 0.180000
0.626667 0.649333 0.180000
0.683333 0.651333 0.180000
0.740000 0.653333 0.180000
0.796667 0.655333 0.180000
0.853333 0.657333 0.180000
0.910000 0.659333 0.180000
0.966667 0.661333 0.180000
1.000000 0.663333 0.180000
0.178667 0.696667 0.180000
0.235333 0.698667 0.180000
0.292000 0.700667 0.180000
0.348667 0.702667 0.180000
0.405333 0.704667 0.180000
0.462000 0.706667 0.180000
0.518667 0.708667 0.180000
0.575333 0.710667 0.180000
0.632000 0.712667 0.180000
0.688667 0.714667 0.180000
0.745333 0.716667 0.180000
0.802000 0.718667 0.180000
0.858667 0.720667 0.180000
0.915333 0.722667 0.180000
0.972000 0.724667 0.180000
1.000000 0.726667 0.180000
0.184000 0.760000 0.180000
0.240667 0.762000 0.180000
0.297333 0.764000 0.180000
0.354000 0.766000 0.180000
0.410667 0.768000 0.180000
0.467333 0.770000 0.180000
0.524000 0.772000 0.180000
0.580667 0.774000 0.180000
0.637333 0.776000 0.180000
0.694000 0.778000 0.180000
0.750667 0.780000 0.180000
0.807333 0.782000 0.180000
0.864000 0.784000 0.180000
0.920667 0.786000 0.180000
0.977333 0.788000 0.180000
1.000000 0.790000 0.180000
0.189333 0.823333 0.180000
0.246000 0.825333 0.180000
0.302667 0.827333 0.180000
0.359333 0.829333 0.180000
0.416000 0.831333 0.180000
0.472667 0.833333 0.180000
0.529333 0.835333 0.180000
0.586000 0.837333 0.180000
0.642667 0.839333 0.180000
0.699333 0.841333 0.180000
0.756000 0.843333 0.180000
0.812667 0.845333 0.180000
0.869333 0.847333 0.180000
0.926000 0.849333 0.180000
0.982667 0.851333 0.180000
1.000000 0.853333 0.180000
0.194667 0.886667 0.180000
0.251333 0.888667 0.180000
0.308000 0.890667 0.180000
0.364667 0.892667 0.180000
0.421333 0.894667 0.180000
0.478000 0.896667 0.180000
0.534667 0.898667 0.180000
0.591333 0.900667 0.180000
0.648000 0.902667 0.180000
0.704667 0.904667 0.180000
0.761333 0.906667 0.180000
0.818000 0.908667 0.180000
0.874667 0.910667 0.180000
0.931333 0.912667 0.180000
0.988000 0.914667 0.180000
1.000000 0.916667 0.180000
0.200000 0.950000 0.180000
0.256667 0.952000 0.180000
0.313333 0.954000 0.180000
0.370000 0.956000 0.180000
0.426667 0.958000 0.180000
0.483333 0.960000 0.180000
0.540000 0.962000 0.180000
0.596667 0.964000 0.180000
0.653333 0.966000 0.180000
0.710000 0.968000 0.180000
0.766667 0.970000 0.180000
0.823333 0.972000 0.180000
0.880000 0.974000 0.180000
0.936667 0.976000 0.180000
0.993333 0.978000 0.180000
1.000000 0.980000 0.180000
0.120000 0.000000 0.230000
0.176667 0.002000 0.230000
0.233333 0.004000 0.230000
0.290000 0.006000 0.230000
0.346667 0.008000 0.230000
0.403333 0.010000 0.230000
0.460000 0.012000 0.230000
0.516667 0.014000 0.230000
0.573333 0.016000 0.230000
0.630000 0.018000 0.230000
0.686667 0.020000 0.230000
0.743333 0.022000 0.230000
0.800000 0.024000 0.230000
0.856667 0.026000 0.230000
0.913333 0.028000 0.230000
0.970000 0.030000 0.230000
0.125333 0.063333 0.230000
0.182000 0.065333 0.230000
0.238667 0.067333 0.230000
0.295333 0.069333 0.230000
0.352000 0.071333 0.230000
0.408667 0.073333 0.230000
0.465333 0.075333 0.230000
0.522000 0.077333 0.230000
0.578667 0.079333 0.230000
0.635333 0.081333 0.230000
0.692000 0.083333 0.230000
0.748667 0.085333 0.230000
0.805333 0.087333 0.230000
0.862000 0.089333 0.230000
0.918667 0.091333 0.230000
0.975333 0.093333 0.230000
0.130667 0.126667 0.230000
0.187333 0.128667 0.230000
0.244000 0.130667 0.230000
0.300667 0.132667 0.230000
0.357333 0.134667 0.230000
0.414000 0.136667 0.230000
0.470667 0.138667 0.230000
0.527333 0.140667 0.230000
0.584000 0.142667 0.230000
0.640667 0.144667 0.230000
0.697333 0.146667 0.230000
0.754000 0.148667 0.230000
0.810667 0.150667 0.230000
0.867333 0.152667 0.230000
0.924000 0.154667 0.230000
0.980667 0.156667 0.230000
0.136000 0.190000 0.230000
0.192667 0.192000 0.230000
0.249333 0.194000 0.230000
0.306000 0.196000 0.230000
0.362667 0.198000 0.230000
0.419333 0.200000 0.230000
0.476000 0.202000 0.230000
0.532667 0.204000 0.230000
0.589333 0.206000 0.230000
0.646000 0.208000 0.230000
0.702667 0.210000 0.230000
0.759333 0.212000 0.230000
0.816000 0.214000 0.230000
0.872667 0.216000 0.230000
0.929333 0.218000 0.230000
0.986000 0.220000 0.230000
0.141333 0.253333 0.230000
0.198000 0.255333 0.230000
0.254667 0.257333 0.230000
0.311333 0.259333 0.230000
0.368000 0.261333 0.230000
0.424667 0.263333 0.230000
0.481333 0.265333 0.230000
0.538000 0.267333 0.230000
0.594667 0.269333 0.230000
0.651333 0.271333 0.230000
0.708000 0.273333 0.230000
0.764667 0.275333 0.230000
0.821333 0.277333 0.230000
0.878000 0.279333 0.230000
0.934667 0.281333 0.230000
0.991333 0.283333 0.230000
0.146667 0.316667 0.230000
0.203333 0.318667 0.230000
0.260000 0.320667 0.230000
0.316667 0.322667 0.230000
0.373333 0.324667 0.230000
0.430000 0.326667 0.230000
0.486667 0.328667 0.230000
0.543333 0.330667 0.230000
0.600000 0.332667 0.230000
0.656667 0.334667 0.230000
0.713333 0.336667 0.230000
0.770000 0.338667 0.230000
0.826667 0.340667 0.230000
0.883333 0.342667 0.230000
0.940000 0.344667 0.230000
0.996667 0.346667 0.230000
0.152000 0.380000 0.230000
0.208667 0.382000 0.230000
0.265333 0.384000 0.230000
0.322000 0.386000 0.230000
0.378667 0.388000 0.230000
0.435333 0.390000 0.230000
0.492000 0.392000 0.230000
0.548667 0.394000 0.230000
0.605333 0.396000 0.230000
0.662000 0.398000 0.230000
0.718667 0.400000 0.230000
0.775333 0.402000 0.230000
0.832000 0.404000 0.230000
0.888667 0.406000 0.230000
0.945333 0.408000 0.230000
1.000000 0.410000 0.230000
0.157333 0.443333 0.230000
0.214000 0.445333 0.230000
0.270667 0.447333 0.230000
0.327333 0.449333 0.230000
0.384000 0.451333 0.230000
