luts/warm.cube
TITLE "Warm Glow"
DOMAIN_MIN 0.0 0.0 0.0
DOMAIN_MAX 1.0 1.0 1.0
LUT_3D_SIZE 6
0.120000 0.000000 0.080000
0.290000 0.006000 0.080000
0.460000 0.012000 0.080000
0.630000 0.018000 0.080000
0.800000 0.024000 0.080000
0.970000 0.030000 0.080000
0.136000 0.190000 0.080000
0.306000 0.196000 0.080000
0.476000 0.202000 0.080000
0.646000 0.208000 0.080000
0.816000 0.214000 0.080000
0.986000 0.220000 0.080000
0.152000 0.380000 0.080000
0.322000 0.386000 0.080000
0.492000 0.392000 0.080000
0.662000 0.398000 0.080000
0.832000 0.404000 0.080000
1.000000 0.410000 0.080000
0.168000 0.570000 0.080000
0.338000 0.576000 0.080000
0.508000 0.582000 0.080000
0.678000 0.588000 0.080000
0.848000 0.594000 0.080000
1.000000 0.600000 0.080000
0.184000 0.760000 0.080000
0.354000 0.766000 0.080000
0.524000 0.772000 0.080000
0.694000 0.778000 0.080000
0.864000 0.784000 0.080000
1.000000 0.790000 0.080000
0.200000 0.950000 0.080000
0.370000 0.956000 0.080000
0.540000 0.962000 0.080000
0.710000 0.968000 0.080000
0.880000 0.974000 0.080000
1.000000 0.980000 0.080000
0.120000 0.000000 0.230000
0.290000 0.006000 0.230000
0.460000 0.012000 0.230000
0.630000 0.018000 0.230000
0.800000 0.024000 0.230000
0.970000 0.030000 0.230000
0.136000 0.190000 0.230000
0.306000 0.196000 0.230000
0.476000 0.202000 0.230000
0.646000 0.208000 0.230000
0.816000 0.214000 0.230000
0.986000 0.220000 0.230000
0.152000 0.380000 0.230000
0.322000 0.386000 0.230000
0.492000 0.392000 0.230000
0.662000 0.398000 0.230000
0.832000 0.404000 0.230000
1.000000 0.410000 0.230000
0.168000 0.570000 0.230000
0.338000 0.576000 0.230000
0.508000 0.582000 0.230000
0.678000 0.588000 0.230000
0.848000 0.594000 0.230000
1.000000 0.600000 0.230000
0.184000 0.760000 0.230000
0.354000 0.766000 0.230000
0.524000 0.772000 0.230000
0.694000 0.778000 0.230000
0.864000 0.784000 0.230000
1.000000 0.790000 0.230000
0.200000 0.950000 0.230000
0.370000 0.956000 0.230000
0.540000 0.962000 0.230000
0.710000 0.968000 0.230000
0.880000 0.974000 0.230000
1.000000 0.980000 0.230000
0.120000 0.000000 0.380000
0.290000 0.006000 0.380000
0.460000 0.012000 0.380000
0.630000 0.018000 0.380000
0.800000 0.024000 0.380000
0.970000 0.030000 0.380000
0.136000 0.190000 0.380000
0.306000 0.196000 0.380000
0.476000 0.202000 0.380000
0.646000 0.208000 0.380000
0.816000 0.214000 0.380000
0.986000 0.220000 0.380000
0.152000 0.380000 0.380000
0.322000 0.386000 0.380000
0.492000 0.392000 0.380000
0.662000 0.398000 0.380000
0.832000 0.404000 0.380000
1.000000 0.410000 0.380000
0.168000 0.570000 0.380000
0.338000 0.576000 0.380000
0.508000 0.582000 0.380000
0.678000 0.588000 0.380000
0.848000 0.594000 0.380000
1.000000 0.600000 0.380000
0.184000 0.760000 0.380000
0.354000 0.766000 0.380000
0.524000 0.772000 0.380000
0.694000 0.778000 0.380000
0.864000 0.784000 0.380000
1.000000 0.790000 0.380000
0.200000 0.950000 0.380000
0.370000 0.956000 0.380000
0.540000 0.962000 0.380000
0.710000 0.968000 0.380000
0.880000 0.974000 0.380000
1.000000 0.980000 0.380000
0.120000 0.000000 0.530000
0.290000 0.006000 0.530000
0.460000 0.012000 0.530000
0.630000 0.018000 0.530000
0.800000 0.024000 0.530000
0.970000 0.030000 0.530000
0.136000 0.190000 0.530000
0.306000 0.196000 0.530000
0.476000 0.202000 0.530000
0.646000 0.208000 0.530000
0.816000 0.214000 0.530000
0.986000 0.220000 0.530000
0.152000 0.380000 0.530000
0.322000 0.386000 0.530000
0.492000 0.392000 0.530000
0.662000 0.398000 0.530000
0.832000 0.404000 0.530000
1.000000 0.410000 0.530000
0.168000 0.570000 0.530000
0.338000 0.576000 0.530000
0.508000 0.582000 0.530000
0.678000 0.588000 0.530000
0.848000 0.594000 0.530000
1.000000 0.600000 0.530000
0.184000 0.760000 0.530000
0.354000 0.766000 0.530000
0.524000 0.772000 0.530000
0.694000 0.778000 0.530000
0.864000 0.784000 0.530000
1.000000 0.790000 0.530000
0.200000 0.950000 0.530000
0.370000 0.956000 0.530000
0.540000 0.962000 0.530000
0.710000 0.968000 0.530000
0.880000 0.974000 0.530000
1.000000 0.980000 0.530000
0.120000 0.000000 0.680000
0.290000 0.006000 0.680000
0.460000 0.012000 0.680000
0.630000 0.018000 0.680000
0.800000 0.024000 0.680000
0.970000 0.030000 0.680000
0.136000 0.190000 0.680000
0.306000 0.196000 0.680000
0.476000 0.202000 0.680000
0.646000 0.208000 0.680000
0.816000 0.214000 0.680000
0.986000 0.220000 0.680000
0.152000 0.380000 0.680000
0.322000 0.386000 0.680000
0.492000 0.392000 0.680000
0.662000 0.398000 0.680000
0.832000 0.404000 0.680000
1.000000 0.410000 0.680000
0.168000 0.570000 0.680000
0.338000 0.576000 0.680000
0.508000 0.582000 0.680000
0.678000 0.588000 0.680000
0.848000 0.594000 0.680000
1.000000 0.600000 0.680000
0.184000 0.760000 0.680000
0.354000 0.766000 0.680000
0.524000 0.772000 0.680000
0.694000 0.778000 0.680000
0.864000 0.784000 0.680000
1.000000 0.790000 0.680000
0.200000 0.950000 0.680000
0.370000 0.956000 0.680000
0.540000 0.962000 0.680000
0.710000 0.968000 0.680000
0.880000 0.974000 0.680000
1.000000 0.980000 0.680000
0.120000 0.000000 0.830000
0.290000 0.006000 0.830000
0.460000 0.012000 0.830000
0.630000 0.018000 0.830000
0.800000 0.024000 0.830000
0.970000 0.030000 0.830000
0.136000 0.190000 0.830000
0.306000 0.196000 0.830000
0.476000 0.202000 0.830000
0.646000 0.208000 0.830000
0.816000 0.214000 0.830000
0.986000 0.220000 0.830000
0.152000 0.380000 0.830000
0.322000 0.386000 0.830000
0.492000 0.392000 0.830000
0.662000 0.398000 0.830000
0.832000 0.404000 0.830000
1.000000 0.410000 0.830000
0.168000 0.570000 0.830000
0.338000 0.576000 0.830000
0.508000 0.582000 0.830000
0.678000 0.588000 0.830000
0.848000 0.594000 0.830000
1.000000 0.600000 0.830000
0.184000 0.760000 0.830000
0.354000 0.766000 0.830000
0.524000 0.772000 0.830000
0.694000 0.778000 0.830000
0.864000 0.784000 0.830000
1.000000 0.790000 0.830000
0.200000 0.950000 0.830000
0.370000 0.956000 0.830000
0.540000 0.962000 0.830000
0.710000 0.968000 0.830000
0.880000 0.974000 0.830000
1.000000 0.980000 0.830000
